packages/gestalt-icons-android/vr-theme/ic_vr_lips_gestalt.svg

<svg width="24" height="24" viewBox="0 0 24 24" fill="none" xmlns="http://www.w3.org/2000/svg">
<path fill-rule="evenodd" clip-rule="evenodd" d="M11.9999 6.37873C14.6379 4.20868 18.3209 4.61002 20.5529 7.51392L23.57 11.4404C23.8277 11.7758 23.8487 12.2391 23.6051 12.5849C20.8504 16.4948 16.6814 19 11.9999 19C7.31838 19 3.1494 16.4948 0.394707 12.5849C0.151068 12.2391 0.172024 11.7758 0.429768 11.4404L3.44688 7.51392C5.67888 4.61002 9.36188 4.20868 11.9999 6.37873ZM10.7293 7.92328L11.9999 8.96847L13.2704 7.92328C15.0019 6.49896 17.3974 6.69039 18.9672 8.73273L20.5414 10.7815L16.276 10.1721C15.3017 10.033 14.3104 10.2578 13.4915 10.8037L13.1093 11.0585C12.4375 11.5064 11.5623 11.5064 10.8905 11.0585L10.5083 10.8037C9.68941 10.2578 8.69804 10.033 7.72379 10.1721L3.45832 10.7815L5.03259 8.73273C6.60239 6.6906 8.9979 6.49901 10.7293 7.92328ZM3.1557 12.845C5.51828 15.4637 8.6393 17 11.9999 17C15.3605 17 18.4815 15.4637 20.8441 12.845L15.9931 12.152C15.506 12.0825 15.0103 12.1949 14.6009 12.4678L14.2187 12.7227C12.8751 13.6184 11.1247 13.6184 9.78108 12.7227L9.39887 12.4678C8.98944 12.1949 8.49376 12.0825 8.00663 12.152L3.1557 12.845Z" fill="black"/>
</svg>

<svg xmlns="http://www.w3.org/2000/svg" width="24" height="24"><path d="M12 6.38c2.64-2.17 6.32-1.77 8.55 1.13l3.02 3.93c.26.34.28.8.04 1.14C20.85 16.5 16.68 19 12 19S3.15 16.5.4 12.58a1 1 0 0 1 .03-1.14l3.02-3.93c2.23-2.9 5.91-3.3 8.55-1.13M5.03 8.73l-1.57 2.05 4.26-.6a4 4 0 0 1 2.79.62l.38.26a2 2 0 0 0 2.22 0l.38-.26a4 4 0 0 1 2.79-.63l4.26.61-1.57-2.05C17.4 6.7 15 6.5 13.27 7.93L12 8.96l-1.27-1.05C9 6.5 6.6 6.7 5.03 8.73m-1.87 4.12A12 12 0 0 0 12 17c3.36 0 6.48-1.54 8.84-4.15l-4.85-.7a2 2 0 0 0-1.39.32l-.38.25a4 4 0 0 1-4.44 0l-.38-.25a2 2 0 0 0-1.4-.32z"/></svg>
